app/public/dtpr-icons/resale.svg

<svg width="36" height="36" viewBox="0 0 36 36" fill="none" xmlns="http://www.w3.org/2000/svg">
<path fill-rule="evenodd" clip-rule="evenodd" d="M18 21.8929C17.4549 21.8929 16.9421 21.6806 16.5567 21.2949C16.3915 21.13 16.2583 20.9418 16.1599 20.7378C16.0283 20.4647 15.9587 20.1635 15.9587 19.8516H14.25C14.25 20.3573 14.349 20.8486 14.545 21.3115C14.7339 21.7585 15.0042 22.1593 15.3481 22.5032C15.6924 22.8477 16.0935 23.1178 16.5398 23.3066C16.737 23.39 16.9394 23.4558 17.1455 23.5038V25.861H15.6871H15.6148C15.2303 25.861 15.0424 26.3224 15.3155 26.5872L17.6995 28.9798C17.8705 29.1508 18.1353 29.1508 18.3064 28.9798L20.6903 26.5958C20.9552 26.3224 20.7672 25.861 20.3827 25.861H18.8545V23.5038C19.0606 23.4558 19.263 23.39 19.4602 23.3066C19.9065 23.1178 20.3076 22.8477 20.6519 22.5032C20.9958 22.1593 21.2661 21.7585 21.455 21.3115C21.651 20.8486 21.75 20.3573 21.75 19.8516C21.75 19.3456 21.651 18.8544 21.455 18.3917C21.2661 17.9451 20.9958 17.544 20.6519 17.1998C20.3076 16.8559 19.9065 16.5855 19.4602 16.3963C18.9973 16.2007 18.506 16.1013 18 16.1013C17.4549 16.1013 16.9421 15.8891 16.5567 15.5036C16.171 15.1179 15.9587 14.6054 15.9587 14.0601C15.9587 13.515 16.171 13.0022 16.5567 12.6168C16.9421 12.231 17.4549 12.0188 18 12.0188C18.5451 12.0188 19.0578 12.231 19.4433 12.6168C19.829 13.0022 20.0413 13.515 20.0413 14.0601H21.75C21.75 13.5544 21.651 13.0631 21.455 12.6002C21.2661 12.1535 20.9958 11.7524 20.6519 11.4085C20.3076 11.0643 19.9065 10.7939 19.4602 10.6051C19.263 10.5217 19.0606 10.4559 18.8545 10.4079V7.74649C18.8545 7.27463 18.4719 6.89197 18 6.89197C17.5281 6.89197 17.1455 7.27463 17.1455 7.74649V10.4079C16.9394 10.4559 16.737 10.5217 16.5398 10.6051C16.0935 10.7939 15.6924 11.0643 15.3481 11.4085C15.0042 11.7524 14.7339 12.1535 14.545 12.6002C14.349 13.0631 14.25 13.5544 14.25 14.0601C14.25 14.5661 14.349 15.0573 14.545 15.5203C14.7339 15.9669 15.0042 16.3677 15.3481 16.7119C15.6924 17.0561 16.0935 17.3262 16.5398 17.5154C17.0027 17.711 17.494 17.8104 18 17.8104C18.5451 17.8104 19.0578 18.0226 19.4433 18.408C19.829 18.7938 20.0413 19.3062 20.0413 19.8516C20.0413 20.3967 19.829 20.9095 19.4433 21.2949C19.0578 21.6806 18.5451 21.8929 18 21.8929Z" fill="black"/>
<rect x="3" y="3" width="30" height="30" rx="3" stroke="black" stroke-width="2"/>
</svg>

<svg xmlns="http://www.w3.org/2000/svg" width="36" height="36" fill="none"><path fill="#000" fill-rule="evenodd" d="M18 21.893a2.03 2.03 0 0 1-1.443-.598 2.04 2.04 0 0 1-.598-1.443H14.25a3.733 3.733 0 0 0 1.098 2.652 3.73 3.73 0 0 0 1.797 1v2.357h-1.53a.423.423 0 0 0-.3.726L17.7 28.98a.423.423 0 0 0 .606 0l2.384-2.384a.432.432 0 0 0-.307-.735h-1.528v-2.357a3.7 3.7 0 0 0 1.797-1 3.73 3.73 0 0 0 1.098-2.652 3.741 3.741 0 0 0-1.098-2.652A3.75 3.75 0 0 0 18 16.1a2.03 2.03 0 0 1-1.443-.597 2.03 2.03 0 0 1-.598-1.444c0-.545.212-1.058.598-1.443A2.03 2.03 0 0 1 18 12.019c.545 0 1.058.212 1.443.598.386.385.598.898.598 1.443h1.709a3.736 3.736 0 0 0-1.098-2.652 3.74 3.74 0 0 0-1.797-1V7.746a.855.855 0 0 0-1.71 0v2.662a3.7 3.7 0 0 0-1.797 1 3.74 3.74 0 0 0-1.098 2.652 3.73 3.73 0 0 0 1.098 2.652A3.75 3.75 0 0 0 18 17.81c.545 0 1.058.213 1.443.598.386.386.598.898.598 1.444s-.212 1.058-.598 1.443a2.03 2.03 0 0 1-1.443.598" clip-rule="evenodd"/><rect width="30" height="30" x="3" y="3" stroke="#000" stroke-width="2" rx="3"/></svg>
